X: 2
T: Padraig O'Keeffe's
M: 12/8
L: 1/8
R: slide
K: Gmaj
|: Bc |\ 
ded B2 A G2 D G2 B | AFD A2 A BAG B2 c |
ded B2 A G2 D G2 B | AFD B2 A G3 G- :|
|: GB |\
AFD A2 A BAG B2 B | cBA c2 c B2 G B2 c |
ded B2 A GED G2 B | AFD B2 A G3 G- :|
